X:1
T: The Bungalow
C:J. Scott Skinner
R:Reel
Q: 232
K:A
M:4/4
L:1/8
|:E|A2 cA Bc dB|ef ga ec Ac|d1/2d1/2d fd c1/2c1/2c ac|Be ^df e=d Bc|
A2 cA Bc dB|ef ga ec Ac|de fd ce af|ea gb a2 ((3efg) |
ab ga fg ef|de cd Be fg|ab ga fa ec|ea gb a2 ((3efg) |
af ge fd ec|dB cA BG ED|CE AB ce af|ec dB A3:|
